X: 27
T: Lance Dance Song (a)
N: Derived from pawnee27.krn
O: Oklahoma, U.S.A.
N: from Pawnee Music by Frances Densmore, 1926
Z: transcribed to **kern format by David Huron, August 2000
C: Skidi and Chaui Bands, 1919
L: 1/16
M: 3/4
Q: 1/4=88
K: G clef=treble
%%linebreak <none>
!fermata!B4B2> B2 A3 F [I:setbarnb 2]| 
E8E F E F[M:2/4] | 
E2 E FE4 | 
E6F2[M:3/4] | 
E4E6E2 | 
F2> F2E4E D3[M:2/4] | 
B,6A, B, | 
(3B,2 A,2 B,2G,4[M:3/4] | 
E,8^G,4[M:2/4] | 
B,2> B,2^G,4 | 
E,2< ^G,2 E,3 E, | 
E,6^G,2 | 
E,8 :|]  



